X: 122202
T: Loose the Belt
S: Fitzmaurice Collection
Z: BB
N: D in m.8 is suspicious - misprint for E
L: 1/8
M: 6/8
R: jig
Q: 1/4 = 170
K: Am
B | c2A AGE | GAG GAB | c2A AGE | EAA A2B |
c2A AGE | G2G GAB | cBA BA^G | DAA A2 :|
^f | g2g geg | a2a a2b | e2d c2d | e2^f g2b |
ag^f e2d | c2d e2d | cBA BA^G| EAA A2 :|
B | cEc EcE | cEc BAG | cEc EcE | EAA A2B |
cEc EcE | cEc BAG | ABc dB^G | A2A A2 :|
B | c2d e2f | gec BAG | c2d e2f | g3 a3 |
[1 c2d e2f | gec BAG | cBA BA^G | A2A A2 :|
[2 agf e2d | c2d e2d | cBA BA^G | A2A A3 ||
